ids-wordpress/site-IdS/assets/images/icones redes sociais/behance-branco.svg

<svg width="24" height="24" viewBox="0 0 24 24" fill="none" xmlns="http://www.w3.org/2000/svg">
<g clip-path="url(#clip0_627_732)">
<path d="M15.2637 10.2471C16.0252 10.2471 16.635 10.4678 17.0791 10.8477C17.4675 11.18 17.7324 11.637 17.8604 12.1826L17.9062 12.4229C17.9434 12.6642 17.9585 12.9888 17.9531 13.4404H13.9385L13.9404 13.4873C13.957 13.8967 14.0761 14.2104 14.2578 14.4395C14.4395 14.6684 14.6812 14.8102 14.9375 14.8789C15.439 15.0134 16.0049 14.8701 16.2988 14.5449H17.7969C17.5546 15.1666 16.7821 15.9551 15.3125 15.9551C14.5522 15.9551 13.8689 15.7411 13.376 15.2881C12.8837 14.8355 12.5752 14.1387 12.5752 13.1621C12.5753 12.1938 12.863 11.4658 13.3398 10.9805C13.8168 10.4951 14.4881 10.2471 15.2637 10.2471ZM9.47559 8.55566L9.72168 8.56641C10.2774 8.60983 10.7048 8.77174 11.0186 9.00098C11.3769 9.26282 11.5899 9.61499 11.6758 9.98828C11.848 10.737 11.511 11.5686 10.8164 11.9238L10.7236 11.9707L10.8213 12.0059C11.6611 12.3117 12.1017 13.2943 11.9121 14.2061C11.8176 14.6602 11.566 15.0953 11.1309 15.417C10.6957 15.7386 10.0734 15.9492 9.2334 15.9492H6.04492V8.55566H9.47559ZM7.45508 14.5527H9.1709C9.55957 14.5527 9.85011 14.4565 10.0439 14.3076C10.2383 14.1583 10.3337 13.957 10.3291 13.7529C10.3197 13.3423 9.91391 12.9551 9.19531 12.9551H7.45508V14.5527ZM15.2637 11.3457C14.8896 11.3458 14.5935 11.4438 14.377 11.6396C14.1607 11.8354 14.0293 12.1239 13.9756 12.4932L13.9678 12.5449H16.5508L16.5479 12.4971C16.5209 12.1003 16.374 11.81 16.1436 11.6201C15.914 11.431 15.6059 11.3457 15.2637 11.3457ZM7.45508 11.5449H9.29199C9.9358 11.5449 10.327 11.1574 10.333 10.751C10.3359 10.5481 10.2407 10.3469 10.042 10.1982C9.84396 10.0503 9.54426 9.95508 9.13574 9.95508H7.45508V11.5449ZM16.9551 8.54492V9.45508H13.5449V8.54492H16.9551Z" fill="#F3F3F5" stroke="#F3F3F5" stroke-width="0.09"/>
</g>
<rect x="2.75" y="2.75" width="18.5" height="18.5" rx="1.25" stroke="#F3F3F5" stroke-width="1.5"/>
<defs>
<clipPath id="clip0_627_732">
<rect width="12" height="12" fill="white" transform="translate(6 6)"/>
</clipPath>
</defs>
</svg>

<svg xmlns="http://www.w3.org/2000/svg" width="24" height="24" fill="none"><g clip-path="url(#a)"><path fill="#F3F3F5" stroke="#F3F3F5" stroke-width=".09" d="M15.264 10.247c.761 0 1.371.22 1.815.6.389.333.653.79.781 1.336l.046.24c.037.241.053.566.047 1.017H13.94l.001.047c.017.41.136.723.318.953.182.228.423.37.68.439.501.134 1.067-.009 1.36-.334h1.499c-.242.622-1.015 1.41-2.485 1.41-.76 0-1.443-.214-1.936-.667-.492-.453-.8-1.15-.8-2.126 0-.968.287-1.696.764-2.182.477-.485 1.148-.733 1.924-.733ZM9.476 8.556l.246.01c.555.044.983.206 1.297.435.358.262.57.614.657.987.172.749-.165 1.58-.86 1.936l-.092.047.097.035c.84.306 1.28 1.288 1.091 2.2-.094.454-.346.89-.781 1.211-.435.322-1.058.532-1.898.532H6.045V8.556h3.43Zm-2.02 5.997H9.17c.389 0 .68-.097.873-.245.194-.15.29-.351.285-.555-.01-.41-.415-.798-1.134-.798h-1.74v1.598Zm7.808-3.207c-.374 0-.67.098-.887.294-.216.195-.348.484-.401.853l-.008.052h2.583l-.003-.048c-.027-.397-.174-.687-.404-.877-.23-.189-.538-.274-.88-.274Zm-7.809.199h1.837c.644 0 1.035-.388 1.041-.794a.675.675 0 0 0-.291-.553c-.198-.148-.498-.243-.906-.243h-1.68v1.59Zm9.5-3v.91h-3.41v-.91h3.41Z"/></g><rect width="18.5" height="18.5" x="2.75" y="2.75" stroke="#F3F3F5" stroke-width="1.5" rx="1.25"/><defs><clipPath id="a"><path fill="#fff" d="M6 6h12v12H6z"/></clipPath></defs></svg>
